X: 2064
T: The KING'S
C:
Q: "Reel."
R: Reel.
%R: reel
B: James Kerr "Merry Melodies" v.2 p.9 #64
Z: 2016 John Chambers <jc:trillian.mit.edu>
M: C
L: 1/8
%%slurgraces yes
%%graceslurs yes
K: Am
B, |\
A,/A,/A, (EA,) FA,EA, | A,/A,/A, (EA,) CA,A,E |\
A,/A,/A, (EA,) FA,EF | {^F}GEDC B,G,G, :|\
ue |:\
^cAeA aAeA |
^cAeA {d}cAAe |\
[1 ^cAeA aAe^f | gedc BGGB :|\
[2 d2Bd c2Ac | Bgdg BGG |]

%%sep 1 1 500
%%sep 1 1 500

